svg/amethystCluster1.svg

<?xml version="1.0" encoding="UTF-8" standalone="no"?>
<svg
   width="32"
   height="32"
   viewBox="0 0 8.467 8.467"
   version="1.1"
   id="svg1513"
   sodipodi:docname="amethystCluster.svg"
   inkscape:version="1.2 (dc2aeda, 2022-05-15)"
   xmlns:inkscape="http://www.inkscape.org/namespaces/inkscape"
   xmlns:sodipodi="http://sodipodi.sourceforge.net/DTD/sodipodi-0.dtd"
   xmlns="http://www.w3.org/2000/svg"
   xmlns:svg="http://www.w3.org/2000/svg">
  <defs
     id="defs1517" />
  <sodipodi:namedview
     id="namedview1515"
     pagecolor="#505050"
     bordercolor="#ffffff"
     borderopacity="1"
     inkscape:showpageshadow="0"
     inkscape:pageopacity="0"
     inkscape:pagecheckerboard="1"
     inkscape:deskcolor="#505050"
     showgrid="true"
     inkscape:zoom="32.09375"
     inkscape:cx="11.076923"
     inkscape:cy="16.015579"
     inkscape:window-width="2560"
     inkscape:window-height="1440"
     inkscape:window-x="0"
     inkscape:window-y="0"
     inkscape:window-maximized="0"
     inkscape:current-layer="svg1513">
    <inkscape:grid
       type="xygrid"
       id="grid2051"
       empspacing="4" />
  </sodipodi:namedview>
  <path
     style="fill:#000000;stroke:none;stroke-width:0.264594px;stroke-linecap:butt;stroke-linejoin:miter;stroke-opacity:1"
     d="m 2.11675,4.2335001 2.11675,2.11675 v -2.11675 H 2.11675"
     id="path637" />
  <path
     style="fill:#000000;stroke:none;stroke-width:0.264594px;stroke-linecap:butt;stroke-linejoin:miter;stroke-opacity:1"
     d="M 0,6.3502502 2.11675,4.2335 V 6.3502502 H 0"
     id="path639" />
  <path
     style="fill:#000000;stroke:none;stroke-width:0.264594px;stroke-linecap:butt;stroke-linejoin:miter;stroke-opacity:1"
     d="M 4.2335,6.3502502 6.35025,4.2335 V 6.3502502 H 4.2335"
     id="path641" />
  <path
     style="fill:#000000;stroke:none;stroke-width:0.264594px;stroke-linecap:butt;stroke-linejoin:miter;stroke-opacity:1"
     d="M 8.467,6.3502502 6.35025,8.4670003 V 6.3502502 H 8.467"
     id="path643" />
  <path
     style="fill:#000000;stroke:none;stroke-width:0.264594px;stroke-linecap:butt;stroke-linejoin:miter;stroke-opacity:1"
     d="M 4.2335,6.3502502 2.11675,8.4670003 V 6.3502502 H 4.2335"
     id="path645" />
  <path
     style="fill:#000000;stroke:none;stroke-width:0.264594px;stroke-linecap:butt;stroke-linejoin:miter;stroke-opacity:1"
     d="M 3.1751253,1.0583751 4.2335,2.1167499 V 1.0583751 H 3.1751253"
     id="path743" />
  <path
     style="fill:#000000;stroke:none;stroke-width:0.264594px;stroke-linecap:butt;stroke-linejoin:miter;stroke-opacity:1"
     d="m 6.3502501,4.2334997 -2.11675,-2.1167493 v 2.1167492 h 2.11675"
     id="path1108" />
  <path
     style="fill:#000000;stroke:none;stroke-width:0.264594px;stroke-linecap:butt;stroke-linejoin:miter;stroke-opacity:1"
     d="M 5.2918751,1.0583749 4.2335004,10e-8 v 1.0583748 h 1.0583747"
     id="path1110" />
  <path
     style="fill:#000000;stroke:none;stroke-width:0.264594px;stroke-linecap:butt;stroke-linejoin:miter;stroke-opacity:1"
     d="M 4.2335,2.11675 3.1751253,3.1751249 V 2.11675 H 4.2335"
     id="path1112" />
  <path
     style="fill:#000000;stroke:none;stroke-width:0.264594px;stroke-linecap:butt;stroke-linejoin:miter;stroke-opacity:1"
     d="M 4.2335004,2.11675 5.2918751,1.0583751 V 2.11675 H 4.2335004"
     id="path1114" />
  <path
     style="fill:#000000;stroke:none;stroke-width:0.264594px;stroke-linecap:butt;stroke-linejoin:miter;stroke-opacity:1"
     d="m 6.3502501,8.4670003 -2.11675,-2.1167501 v 2.1167501 h 2.11675"
     id="path1136" />
</svg>

<svg width="32" height="32" viewBox="0 0 8.467 8.467" xmlns="http://www.w3.org/2000/svg"><path style="fill:#000;stroke:none;stroke-width:.264594px;stroke-linecap:butt;stroke-linejoin:miter;stroke-opacity:1" d="M2.117 4.234 4.234 6.35V4.234H2.117M0 6.35l2.117-2.116V6.35H0M4.234 6.35 6.35 4.234V6.35H4.234M8.467 6.35 6.35 8.467V6.35h2.117M4.234 6.35 2.117 8.467V6.35h2.117M3.175 1.058l1.059 1.059V1.058H3.175M6.35 4.233 4.234 2.117v2.116H6.35M5.292 1.058 4.234 0v1.058h1.058M4.234 2.117 3.175 3.175V2.117h1.059M4.234 2.117l1.058-1.059v1.059H4.234M6.35 8.467 4.234 6.35v2.117H6.35"/></svg>
